NotoEmoji/emoji_u1f195.svg

<svg enable-background="new 0 0 128 128" viewBox="0 0 128 128" xmlns="http://www.w3.org/2000/svg"><path d="m116 4h-104c-4.42 0-8 3.58-8 8v104c0 4.42 3.58 8 8 8h104c4.42 0 8-3.58 8-8v-104c0-4.42-3.58-8-8-8z" fill="#427687"/><path d="m109.7 4h-98.2c-4.13.03-7.47 3.37-7.5 7.5v97.9c-.01 4.14 3.34 7.49 7.48 7.5h.02 98.1c4.14.01 7.49-3.34 7.5-7.48 0-.01 0-.01 0-.02v-97.9c.09-4.05-3.13-7.41-7.18-7.5-.07 0-.15 0-.22 0z" fill="#8cafbf"/><path d="m39.7 12.9c0-2.3-1.6-3-10.8-2.7-7.7.3-11.5 1.2-13.8 4s-2.9 8.5-3 15.3c0 4.8 0 9.3 2.5 9.3 3.4 0 3.4-7.9 6.2-12.3 5.4-8.7 18.9-10.6 18.9-13.6z" fill="#b4e1ed" opacity=".5"/><g fill="#fafafa"><path d="m40.95 80.3h-8.66l-13.97-24.3h-.2c.28 4.29.42 7.35.42 9.18v15.12h-6.09v-32.12h8.59l13.96 24.06h.15c-.22-4.17-.33-7.13-.33-8.85v-15.21h6.13z"/><path d="m66.41 80.3h-18.5v-32.12h18.5v5.58h-11.69v7.05h10.88v5.58h-10.88v8.28h11.69z"/><path d="m105.53 80.3h-7.76l-4.35-16.88c-.16-.6-.44-1.84-.82-3.72-.39-1.88-.61-3.15-.67-3.79-.09.79-.31 2.06-.66 3.81s-.62 3-.81 3.75l-4.33 16.83h-7.73l-8.2-32.12h6.7l4.11 17.53c.72 3.24 1.24 6.04 1.56 8.42.09-.84.29-2.13.6-3.88.32-1.75.61-3.11.89-4.08l4.68-18h6.44l4.68 18c.21.81.46 2.04.77 3.69.31 1.66.54 3.08.7 4.26.15-1.14.38-2.57.7-4.27.32-1.71.62-3.09.88-4.14l4.09-17.53h6.7z"/></g></svg>

<?xml version="1.0" encoding="utf-8"?>
<!-- Generator: Adobe Illustrator 25.2.3, SVG Export Plug-In . SVG Version: 6.00 Build 0)  -->
<svg version="1.1" id="Layer_2" xmlns="http://www.w3.org/2000/svg" xmlns:xlink="http://www.w3.org/1999/xlink" x="0px" y="0px"
	 viewBox="0 0 128 128" style="enable-background:new 0 0 128 128;" xml:space="preserve">
<g>
	<path style="fill:#427687;" d="M116,4H12c-4.42,0-8,3.58-8,8v104c0,4.42,3.58,8,8,8h104c4.42,0,8-3.58,8-8V12
		C124,7.58,120.42,4,116,4z"/>
	<path style="fill:#8CAFBF;" d="M109.7,4H11.5C7.37,4.03,4.03,7.37,4,11.5v97.9c-0.01,4.14,3.34,7.49,7.48,7.5c0.01,0,0.01,0,0.02,0
		h98.1c4.14,0.01,7.49-3.34,7.5-7.48c0-0.01,0-0.01,0-0.02V11.5c0.09-4.05-3.13-7.41-7.18-7.5C109.85,4,109.77,4,109.7,4z"/>
	<path style="opacity:0.5;fill:#B4E1ED;enable-background:new    ;" d="M39.7,12.9c0-2.3-1.6-3-10.8-2.7c-7.7,0.3-11.5,1.2-13.8,4
		s-2.9,8.5-3,15.3c0,4.8,0,9.3,2.5,9.3c3.4,0,3.4-7.9,6.2-12.3C26.2,17.8,39.7,15.9,39.7,12.9z"/>
</g>
<g>
	<path style="fill:#FAFAFA;" d="M40.95,80.3h-8.66L18.32,56h-0.2c0.28,4.29,0.42,7.35,0.42,9.18V80.3h-6.09V48.18h8.59L35,72.24
		h0.15c-0.22-4.17-0.33-7.13-0.33-8.85V48.18h6.13V80.3z"/>
	<path style="fill:#FAFAFA;" d="M66.41,80.3h-18.5V48.18h18.5v5.58H54.72v7.05H65.6v5.58H54.72v8.28h11.69V80.3z"/>
	<path style="fill:#FAFAFA;" d="M105.53,80.3h-7.76l-4.35-16.88c-0.16-0.6-0.44-1.84-0.82-3.72c-0.39-1.88-0.61-3.15-0.67-3.79
		c-0.09,0.79-0.31,2.06-0.66,3.81s-0.62,3-0.81,3.75L86.13,80.3h-7.73l-8.2-32.12h6.7l4.11,17.53c0.72,3.24,1.24,6.04,1.56,8.42
		c0.09-0.84,0.29-2.13,0.6-3.88c0.32-1.75,0.61-3.11,0.89-4.08l4.68-18h6.44l4.68,18c0.21,0.81,0.46,2.04,0.77,3.69
		c0.31,1.66,0.54,3.08,0.7,4.26c0.15-1.14,0.38-2.57,0.7-4.27c0.32-1.71,0.62-3.09,0.88-4.14L107,48.18h6.7L105.53,80.3z"/>
</g>
</svg>
